docs/img/svg/twitter.svg

<svg xmlns="http://www.w3.org/2000/svg" preserveAspectRatio="xMidYMid" width="13" height="10" viewBox="0 0 13 10"><defs><style>.cls-1{fill:#fff;fill-rule:evenodd}</style></defs><path d="M12.646.184a5.565 5.565 0 0 1-1.695.613 2.73 2.73 0 0 0-1.947-.798c-1.473 0-2.668 1.131-2.668 2.524 0 .198.024.39.07.575C4.189 2.993 2.223 1.988.908.46c-.23.373-.361.806-.361 1.269 0 .876.471 1.649 1.186 2.101a2.774 2.774 0 0 1-1.208-.317v.032c0 1.223.92 2.243 2.14 2.476a2.844 2.844 0 0 1-1.205.042c.339 1.003 1.324 1.733 2.491 1.754a5.547 5.547 0 0 1-3.312 1.08c-.216 0-.428-.012-.637-.035a7.866 7.866 0 0 0 4.089 1.134c4.906 0 7.589-3.846 7.589-7.182l-.009-.327a5.22 5.22 0 0 0 1.333-1.305c-.478.2-.992.337-1.531.397A2.565 2.565 0 0 0 12.646.184z" class="cls-1"/></svg>

<svg xmlns="http://www.w3.org/2000/svg" xmlns:xlink="http://www.w3.org/1999/xlink" preserveAspectRatio="xMidYMid" width="13" height="10" viewBox="0 0 13 10">
  <defs>
    <style>
      .cls-1 {
        fill: #fff;
        fill-rule: evenodd;
      }
    </style>
  </defs>
  <path d="M12.646,0.184 C12.130,0.473 11.559,0.683 10.951,0.797 C10.464,0.305 9.772,-0.001 9.004,-0.001 C7.531,-0.001 6.336,1.130 6.336,2.523 C6.336,2.721 6.360,2.913 6.406,3.098 C4.189,2.993 2.223,1.988 0.908,0.460 C0.678,0.833 0.547,1.266 0.547,1.729 C0.547,2.605 1.018,3.378 1.733,3.830 C1.296,3.816 0.885,3.703 0.525,3.513 L0.525,3.545 C0.525,4.768 1.445,5.788 2.665,6.021 C2.441,6.078 2.206,6.109 1.962,6.109 C1.790,6.109 1.623,6.093 1.460,6.063 C1.799,7.066 2.784,7.796 3.951,7.817 C3.038,8.494 1.888,8.897 0.639,8.897 C0.423,8.897 0.211,8.885 0.002,8.862 C1.183,9.578 2.584,9.996 4.091,9.996 C8.997,9.996 11.680,6.150 11.680,2.814 L11.671,2.487 C12.194,2.132 12.647,1.688 13.004,1.182 C12.526,1.382 12.012,1.519 11.473,1.579 C12.024,1.267 12.446,0.772 12.646,0.184 Z" class="cls-1"/>
</svg>
